X:1
T:Title
%%score ( 1 2 ) ( 3 4 )
L:1/8
M:3/4
K:Bb
V:1 treble nm="Bright Piano"
V:2 treble 
V:3 bass nm="Bright Piano"
V:4 bass 
V:1
 z2 z2[Q:1/4=114] F2 | [FB]4 [Fc]2 | [Fd]4 [FB]2 | [Ee]4 [Fd]2 | [Fc]4 [FB]2 | A2- [FA]2 [EG]2 | %6
 [B,F]4 [A,E]2 | [B,D]4 [DF]2 | [DB]4 [Fc]2 | [Fd]4 [GB]2 | [^FA]4 G2 | [Ge]4 [Gd]2 | [Gc]4 [CB]2 | %13
 [CA]4 [Ec]2 |[M:2/4] [DB]4 |[M:1/4] F2 |[M:3/4] [FB]4 [Fc]2 | [Fd]4 [FB]2 | [Ee]4 [Fd]2 | %19
 [Fc]4 [FB]2 | A2- [FA]2 [EG]2 | F2- [DF]2 [EG]2 | [B,F]4 [A,E]2 | [B,D]4 [DF]2 | [DB]4 [Fc]2 | %25
 [Fd]4 [GB]2 | [^FA]4 G2 | [Ge]4 [Gd]2 | [Gc]4 [CB]2 | [CA]4 F2 | G2- [EG-][DG] [EA]2 | %31
[M:2/4] [DB]4 |] %32
V:2
 x6 | x6 | x6 | x6 | x6 | E2 z2 z2 | x6 | x6 | x6 | x6 | x6 | x6 | x6 | x6 |[M:2/4] x4 | %15
[M:1/4] x2 |[M:3/4] x6 | x6 | x6 | x6 | E2 z2 z2 | E2 z2 z2 | x6 | x6 | x6 | x6 | x6 | x6 | x6 | %29
 x6 | F2 z2 z2 |[M:2/4] x4 |] %32
V:3
 z2 z2 F,2 | [D,F,]4 [F,A,]2 | [B,,B,]4 [D,B,]2 | G,2 A,2 [B,,B,]2 | [F,A,]4 [D,B,]2 | %5
 C2- [D,C]2 [E,B,]2 | [D,F,]4 [C,F,]2 | [B,,F,]4 B,2 | [G,B,]4 [F,A,]2 | B,4 [G,D]2 | %10
 D2 C2 [E,B,]2 | [C,C]4 [G,=B,]2 | [E,C]4 [=E,G,]2 | A,2- [E,A,]2 [F,A,]2 |[M:2/4] [B,,F,]4 | %15
[M:1/4] F,2 |[M:3/4] [D,F,]4 [F,A,]2 | [B,,B,]4 [D,B,]2 | G,2 A,2 [B,,B,]2 | [F,A,]4 [D,B,]2 | %20
 C2- [D,C]2 [E,B,]2 | B,4 [E,B,]2 | [D,F,]4 [C,A,]2 | [B,,F,]4 B,2 | [G,B,]4 [F,A,]2 | B,4 [G,D]2 | %26
 D2 C2 [E,B,]2 | [C,C]4 [G,=B,]2 | [E,C]4 [=E,G,]2 | A,2- [E,A,]2 [D,B,]2 | [C,G,]4 F,2 | %31
[M:2/4] [B,,F,]4 |] %32
V:4
 x6 | x6 | x6 | C,4 z2 | x6 | C,2 z2 z2 | x6 | x6 | x6 | x6 | D,4 z2 | x6 | x6 | F,2 z2 z2 | %14
[M:2/4] x4 |[M:1/4] x2 |[M:3/4] x6 | x6 | C,4 z2 | x6 | C,2 z2 z2 | x6 | x6 | x6 | x6 | x6 | %26
 D,4 z2 | x6 | x6 | F,2 z2 z2 | x6 |[M:2/4] x4 |] %32

